src/assets/icons/ico_bathroom.svg

<?xml version="1.0" encoding="utf-8"?>
<!-- Generator: Adobe Illustrator 26.0.1, SVG Export Plug-In . SVG Version: 6.00 Build 0)  -->
<svg version="1.1" id="Layer_1" xmlns="http://www.w3.org/2000/svg" xmlns:xlink="http://www.w3.org/1999/xlink" x="0px" y="0px"
	 viewBox="0 0 64 64" style="enable-background:new 0 0 64 64;" xml:space="preserve">
<style type="text/css">
	.st0{fill:#43BBC4;}
</style>
<path class="st0" d="M32.9152,47.2931c0.218-1.0145-0.0921-2.0988-0.8361-2.8322c-0.8184-0.8291-2.0225-1.1211-3.1436-0.7646
	c-0.0065,0.0021-0.0107,0.0072-0.017,0.0095c-0.0305,0.011-0.0569,0.0306-0.0853,0.0478c-0.0289,0.0177-0.059,0.0326-0.0833,0.0553
	c-0.0048,0.0044-0.011,0.0058-0.0157,0.0104c-0.0177,0.0177-0.0254,0.0404-0.0399,0.0599
	c-0.0211,0.0283-0.0427,0.0547-0.0574,0.0865c-0.0134,0.0294-0.019,0.0596-0.0266,0.0906
	c-0.0078,0.0316-0.0168,0.0617-0.0184,0.0946c-0.0015,0.0341,0.0056,0.0667,0.011,0.1005c0.0039,0.0247,0.0002,0.0491,0.0081,0.0737
	c0.0021,0.0065,0.0072,0.0107,0.0095,0.017c0.0109,0.03,0.0301,0.0559,0.0469,0.0838c0.0178,0.0293,0.033,0.0597,0.056,0.0842
	c0.0045,0.0049,0.0059,0.0114,0.0107,0.0161l1.3936,1.3936l-0.9639,0.9639l-1.3936-1.3936
	c-0.0036-0.0036-0.0085-0.0046-0.0121-0.0081c-0.0256-0.0243-0.0577-0.0402-0.0886-0.0588
	c-0.0269-0.0161-0.0515-0.0355-0.0803-0.046c-0.0053-0.002-0.0089-0.0063-0.0143-0.0082c-0.0262-0.0089-0.0522-0.0056-0.0786-0.0099
	c-0.0325-0.0052-0.0638-0.0134-0.0967-0.0122c-0.0367,0.0012-0.0705,0.0114-0.1055,0.0206
	c-0.0271,0.0069-0.054,0.0108-0.0799,0.0223c-0.0358,0.016-0.0655,0.0402-0.0967,0.0642c-0.0175,0.0134-0.0383,0.02-0.0543,0.0361
	c-0.0035,0.0035-0.0046,0.0084-0.008,0.0121c-0.0238,0.0252-0.0395,0.0568-0.0579,0.0871c-0.0165,0.0273-0.0362,0.0525-0.047,0.0819
	c-0.002,0.0053-0.0063,0.0088-0.0082,0.0142c-0.1855,0.5576-0.2051,1.1426-0.0625,1.666c0.1191,0.5547,0.4004,1.0674,0.8135,1.4805
	c0.5967,0.5967,1.3848,0.916,2.1904,0.916c0.2173,0,0.435-0.0321,0.6513-0.0792l3.8223,3.8223
	c0.3154,0.3145,0.7393,0.4883,1.1816,0.4883c0.0488,0,0.0977-0.002,0.1475-0.0059c0.4932-0.043,0.9414-0.3018,1.2275-0.71
	c0.4648-0.6592,0.3643-1.6074-0.2354-2.207L32.9152,47.2931z M36.0967,52.6885c-0.1182,0.168-0.2949,0.2705-0.4971,0.2881
	c-0.2109,0.0186-0.3955-0.0527-0.5352-0.1924l-4.0195-4.0195c-0.0173-0.0173-0.0397-0.0248-0.0588-0.0391
	c-0.0296-0.0223-0.0576-0.0453-0.0912-0.0606c-0.0267-0.012-0.0543-0.0161-0.0822-0.0232
	c-0.0344-0.0089-0.0674-0.0189-0.1035-0.0201c-0.0343-0.0013-0.067,0.0069-0.101,0.0127c-0.0245,0.0043-0.0488,0.0009-0.0731,0.0092
	c-0.7529,0.248-1.5684,0.0479-2.1348-0.5186c-0.2764-0.2764-0.4639-0.6162-0.5488-1.0088
	c-0.0129-0.0479-0.0077-0.0988-0.0167-0.1475l0.9756,0.9756c0.0977,0.0977,0.2256,0.1465,0.3535,0.1465s0.2559-0.0488,0.3535-0.1465
	l1.6709-1.6709c0.1953-0.1953,0.1953-0.5117,0-0.707L30.21,44.5879c0.4324,0.0677,0.8412,0.2556,1.1621,0.5811
	c0.5566,0.5488,0.7598,1.3818,0.5156,2.1221c-0.0076,0.0228-0.0042,0.0455-0.0083,0.0684
	c-0.0066,0.0363-0.0146,0.0715-0.0131,0.1083c0.0013,0.0326,0.0107,0.0624,0.0182,0.0937c0.0073,0.0309,0.0123,0.0614,0.0256,0.0908
	c0.015,0.033,0.0377,0.0604,0.0594,0.0895c0.0143,0.0192,0.0218,0.0416,0.0392,0.0591l3.9629,3.9629
	C36.1924,51.9844,36.3115,52.3838,36.0967,52.6885z"/>
<path class="st0" d="M52.8564,30.2085h-1.3848H12.7041v-4.3989h2.5996v1.2993c0,0.2764,0.2236,0.5,0.5,0.5s0.5-0.2236,0.5-0.5
	v-3.5986c0-0.2764-0.2236-0.5-0.5-0.5s-0.5,0.2236-0.5,0.5v1.2993h-2.5996V14.5117c0-1.7085,1.3906-3.0986,3.0996-3.0986h1.7998
	c1.4879,0,2.7347,1.0662,3.0294,2.4952c-2.002,0.3564-3.5294,2.1002-3.5294,4.2031c0,0.2764,0.2236,0.5,0.5,0.5h7.5596
	c0.2764,0,0.5-0.2236,0.5-0.5c0-2.2737-1.789-4.1212-4.0311-4.2535c-0.3298-1.961-2.0092-3.4447-4.0284-3.4447h-1.7998
	c-2.2607,0-4.0996,1.8389-4.0996,4.0986v15.6968h-0.5605c-1.2686,0-2.2998,1.0317-2.2998,2.2998s1.0312,2.2993,2.2998,2.2993h0.5566
	v8.502c0,3.248,2.6465,5.8906,5.8994,5.8906h1.3027v2.335c0,0.2764,0.2236,0.5,0.5,0.5s0.5-0.2236,0.5-0.5v-2.335h3.2848
	c0.2292,4.6691,4.0878,8.3994,8.8129,8.3994s8.5836-3.7303,8.8129-8.3994h3.2848v2.335c0,0.2764,0.2236,0.5,0.5,0.5
	s0.5-0.2236,0.5-0.5v-2.335h1.3027c3.2529,0,5.8994-2.6426,5.8994-5.8906v-8.502h0.5566c1.2686,0,2.2998-1.0312,2.2998-2.2993
	S54.125,30.2085,52.8564,30.2085z M24.6125,17.6113h-6.4584c0.243-1.5699,1.5913-2.7788,3.2278-2.7788
	C23.0201,14.8325,24.3694,16.0414,24.6125,17.6113z M32,56.5996c-4.3203,0-7.835-3.5146-7.835-7.835
	c0-0.0178,0.0026-0.0358,0.0027-0.0536c0.0001-0.0038,0.0022-0.007,0.0022-0.0109c0-0.0023-0.0012-0.0042-0.0013-0.0065
	c0.0045-0.5135,0.0549-1.0268,0.1605-1.5609c0.7705-3.5938,3.9971-6.2021,7.6709-6.2021c3.6729,0,6.8975,2.6064,7.6709,6.1982
	c0.1055,0.5406,0.1559,1.0532,0.1605,1.5648c-0.0001,0.0023-0.0013,0.0042-0.0013,0.0065c0,0.0038,0.0021,0.007,0.0022,0.0108
	c0.0001,0.0178,0.0027,0.0358,0.0027,0.0536C39.835,53.085,36.3203,56.5996,32,56.5996z M51.2998,43.3096
	c0,2.6963-2.1982,4.8906-4.8994,4.8906h-5.5942c-0.0264-0.4175-0.0711-0.8403-0.1558-1.2686c0-0.0029-0.001-0.0059-0.001-0.0078
	c-0.8701-4.0527-4.5068-6.9932-8.6494-6.9932s-7.7793,2.9404-8.6504,7.001c-0.0847,0.4283-0.1295,0.851-0.1558,1.2686h-5.5942
	c-2.7012,0-4.8994-2.1943-4.8994-4.8906v-8.5h38.5996V43.3096z M52.8564,33.8076H11.1436c-0.7285,0-1.2998-0.5703-1.2998-1.2993
	s0.5713-1.2998,1.2998-1.2998h1.3848h38.9434h1.3848c0.7285,0,1.2998,0.5708,1.2998,1.2998S53.585,33.8076,52.8564,33.8076z"/>
</svg>

<?xml version="1.0" encoding="UTF-8" standalone="no"?>
<!DOCTYPE svg PUBLIC "-//W3C//DTD SVG 1.1//EN" "http://www.w3.org/Graphics/SVG/1.1/DTD/svg11.dtd">
<svg width="100%" height="100%" viewBox="0 0 64 65" version="1.1" xmlns="http://www.w3.org/2000/svg" xmlns:xlink="http://www.w3.org/1999/xlink" xml:space="preserve" xmlns:serif="http://www.serif.com/" style="fill-rule:evenodd;clip-rule:evenodd;stroke-linejoin:round;stroke-miterlimit:2;">
    <g transform="matrix(1,0,0,1,0,-161)">
        <g transform="matrix(0.0625,0,0,0.0833333,0,161.712)">
            <rect id="ico_bathroom" x="0" y="0" width="1024" height="768" style="fill:none;"/>
            <g id="ico_bathroom1" serif:id="ico_bathroom">
                <g id="ico_bathroom.svg" transform="matrix(16,0,0,12,512,384)">
                    <g transform="matrix(1,0,0,1,-32,-32)">
                        <g>
                            <path d="M32.915,47.293C33.133,46.279 32.823,45.194 32.079,44.461C31.261,43.632 30.057,43.34 28.935,43.696C28.929,43.698 28.925,43.704 28.918,43.706C28.888,43.717 28.862,43.736 28.833,43.754C28.804,43.771 28.774,43.786 28.75,43.809C28.745,43.813 28.739,43.815 28.734,43.819C28.716,43.837 28.709,43.86 28.694,43.879C28.673,43.908 28.652,43.934 28.637,43.966C28.623,43.995 28.618,44.025 28.61,44.056C28.603,44.088 28.594,44.118 28.592,44.151C28.59,44.185 28.598,44.218 28.603,44.251C28.607,44.276 28.603,44.301 28.611,44.325C28.613,44.332 28.618,44.336 28.62,44.342C28.631,44.372 28.651,44.398 28.667,44.426C28.685,44.455 28.7,44.486 28.723,44.51C28.728,44.515 28.729,44.522 28.734,44.526L30.128,45.92L29.164,46.884L27.77,45.49C27.767,45.487 27.762,45.486 27.758,45.482C27.732,45.458 27.7,45.442 27.67,45.423C27.643,45.407 27.618,45.388 27.589,45.377C27.584,45.375 27.58,45.371 27.575,45.369C27.549,45.36 27.523,45.363 27.496,45.359C27.464,45.354 27.432,45.346 27.4,45.347C27.363,45.348 27.329,45.358 27.294,45.368C27.267,45.374 27.24,45.378 27.214,45.39C27.178,45.406 27.149,45.43 27.118,45.454C27.1,45.467 27.079,45.474 27.063,45.49C27.06,45.494 27.059,45.499 27.055,45.502C27.031,45.527 27.016,45.559 26.997,45.589C26.981,45.617 26.961,45.642 26.95,45.671C26.948,45.677 26.944,45.68 26.942,45.685C26.757,46.243 26.737,46.828 26.88,47.351C26.999,47.906 27.28,48.419 27.693,48.832C28.29,49.429 29.078,49.748 29.884,49.748C30.101,49.748 30.319,49.716 30.535,49.669L34.357,53.491C34.673,53.806 35.096,53.979 35.539,53.979C35.588,53.979 35.636,53.977 35.686,53.973C36.179,53.93 36.628,53.672 36.914,53.263C37.379,52.604 37.278,51.656 36.678,51.056L32.915,47.293ZM36.097,52.689C35.978,52.856 35.802,52.959 35.6,52.977C35.389,52.995 35.204,52.924 35.064,52.784L31.045,48.765C31.028,48.747 31.005,48.74 30.986,48.726C30.956,48.703 30.928,48.68 30.895,48.665C30.868,48.653 30.841,48.649 30.813,48.642C30.778,48.633 30.745,48.623 30.709,48.622C30.675,48.62 30.642,48.629 30.608,48.634C30.584,48.639 30.559,48.635 30.535,48.644C29.782,48.892 28.967,48.692 28.4,48.125C28.124,47.849 27.936,47.509 27.851,47.116C27.839,47.068 27.844,47.017 27.835,46.969L28.81,47.944C28.908,48.042 29.036,48.091 29.164,48.091C29.292,48.091 29.42,48.042 29.517,47.944L31.188,46.273C31.384,46.078 31.384,45.762 31.188,45.566L30.21,44.588C30.642,44.656 31.051,44.844 31.372,45.169C31.929,45.718 32.132,46.551 31.888,47.291C31.88,47.314 31.883,47.337 31.879,47.359C31.873,47.396 31.865,47.431 31.866,47.468C31.868,47.5 31.877,47.53 31.885,47.561C31.892,47.592 31.897,47.623 31.91,47.652C31.925,47.685 31.948,47.713 31.97,47.742C31.984,47.761 31.991,47.783 32.009,47.801L35.972,51.764C36.192,51.984 36.312,52.384 36.097,52.689Z" style="fill:rgb(26,91,87);fill-rule:nonzero;"/>
                            <path d="M52.856,30.209L12.704,30.209L12.704,25.81L15.304,25.81L15.304,27.109C15.304,27.385 15.527,27.609 15.804,27.609C16.08,27.609 16.304,27.385 16.304,27.109L16.304,23.51C16.304,23.234 16.08,23.01 15.804,23.01C15.527,23.01 15.304,23.234 15.304,23.51L15.304,24.81L12.704,24.81L12.704,14.512C12.704,12.803 14.095,11.413 15.804,11.413L17.604,11.413C19.091,11.413 20.338,12.479 20.633,13.908C18.631,14.265 17.104,16.009 17.104,18.111C17.104,18.388 17.327,18.611 17.604,18.611L25.163,18.611C25.44,18.611 25.663,18.388 25.663,18.111C25.663,15.838 23.874,13.99 21.632,13.858C21.302,11.897 19.623,10.413 17.604,10.413L15.804,10.413C13.543,10.413 11.704,12.252 11.704,14.512L11.704,30.209L11.144,30.209C9.875,30.209 8.844,31.24 8.844,32.508C8.844,33.777 9.875,34.808 11.144,34.808L11.7,34.808L11.7,43.31C11.7,46.558 14.347,49.2 17.6,49.2L18.902,49.2L18.902,51.535C18.902,51.812 19.126,52.035 19.402,52.035C19.679,52.035 19.902,51.812 19.902,51.535L19.902,49.2L23.187,49.2C23.416,53.869 27.275,57.6 32,57.6C36.725,57.6 40.584,53.869 40.813,49.2L44.098,49.2L44.098,51.535C44.098,51.812 44.321,52.035 44.598,52.035C44.874,52.035 45.098,51.812 45.098,51.535L45.098,49.2L46.401,49.2C49.653,49.2 52.3,46.558 52.3,43.31L52.3,34.808L52.857,34.808C54.125,34.808 55.156,33.777 55.156,32.508C55.156,31.24 54.125,30.209 52.856,30.209ZM24.613,17.611L18.154,17.611C18.397,16.041 19.745,14.833 21.382,14.833C23.02,14.833 24.369,16.041 24.613,17.611ZM32,56.6C27.68,56.6 24.165,53.085 24.165,48.765C24.165,48.747 24.168,48.729 24.168,48.711C24.168,48.707 24.17,48.704 24.17,48.7C24.17,48.698 24.169,48.696 24.169,48.694C24.173,48.18 24.223,47.667 24.329,47.133C25.1,43.539 28.326,40.931 32,40.931C35.673,40.931 38.897,43.537 39.671,47.129C39.776,47.669 39.827,48.182 39.831,48.694C39.831,48.696 39.83,48.698 39.83,48.7C39.83,48.704 39.832,48.707 39.832,48.711C39.832,48.729 39.835,48.747 39.835,48.765C39.835,53.085 36.32,56.6 32,56.6ZM51.3,43.31C51.3,46.006 49.102,48.2 46.4,48.2L40.806,48.2C40.78,47.783 40.735,47.36 40.65,46.932C40.65,46.929 40.649,46.926 40.649,46.924C39.779,42.871 36.143,39.931 32,39.931C27.857,39.931 24.221,42.871 23.35,46.932C23.265,47.36 23.22,47.783 23.194,48.2L17.6,48.2C14.898,48.2 12.7,46.006 12.7,43.31L12.7,34.81L51.3,34.81L51.3,43.31ZM52.856,33.808L11.144,33.808C10.415,33.808 9.844,33.237 9.844,32.508C9.844,31.779 10.415,31.208 11.144,31.208L52.857,31.208C53.585,31.208 54.156,31.779 54.156,32.508C54.156,33.237 53.585,33.808 52.856,33.808Z" style="fill:rgb(26,91,87);fill-rule:nonzero;"/>
                        </g>
                    </g>
                </g>
            </g>
        </g>
    </g>
</svg>
